X:1
T:Hymne des Marseillais
T:Hymne des Marseillais
T:(Chant de guerre pour l'Armée du Rhin)
T:Claude Joseph Rouget de Lisle
C:Claude Joseph Rouget de Lisle
%%score [ 1 2 3 ] { ( 4 6 ) | 5 }
L:1/8
Q:1/4=100
M:4/4
K:Bb
V:1 treble nm="Soprano"
V:2 treble-8 nm="Tenor"
V:3 bass nm="Bass"
V:4 treble nm="Piano"
V:6 treble 
V:5 bass 
V:1
 z4 z z/!f! F/ F3/2 F/ | B2 B2 c2 c2 | f3 d B z/ B/ d3/2 B/ | G2 e4 c3/2 A/ | B4 z2!p! B3/2 c/ | %5
w: Al- lons, en-|fants de la Pa-|tri- * e, Le jour de|gloire est ar- ri-|vé! Con- tre|
 d3 d d2 e3/2 d/ | d2 c2 z2 c3/2 d/ | e3 e e2 f3/2 e/ | d4 z2!f! f3/2 f/ | %9
w: nous de la ty- ran-|ni- e, L'é- ten-|dard san- glant est le-|vé, l'é- ten-|
 (f2 d3/2) B/ f2 d3/2 B/ | F4 z3/2 F/ F3/2 F/ | c4 e2 c3/2 A/ | B2 B2 _A4 | %13
w: dard _ san- glant est le-|vé. En- ten- dez-|vous dans les cam-|pa- gnes Mu-|
 G2 B3/2 B/ B2 =A3/2 B/ | c6 z c | _d3 d d d e3/2 d/ | c6 _d3/2 c/ | B3 B _d2 c3/2 B/ | %18
w: gir ces fé- ro- ces sol-|dats? Ils|vien- nent jus- que dans vos|bras, É- gor-|ger vos fils, vos com-|
 B2 A2 z2 z z/!ff! f/ | f4- f3/2 f/ d3/2 B/ | c6 z z/ f/ | f4- f3/2 f/ d3/2 B/ | c4 z2 F2 | %23
w: pa- gnes! Aux|ar- * mes, ci- toy-|ens! for-|mez _ vos bat- tail-|lons: Mar-|
 B4 z2 B2 | d4 z4 | e4 f2 g2 | c6 (g>f) | f4- f3/2 d/ e3/2 c/ | B4 z2 z z/!ff! f/ || %29
w: chons, mar-|chons!|qu'un sang im-|pur A- *|breu- * ve nos sil-|lons! Aux|
 f4- f3/2 f/ d3/2 B/ | c6 z z/ f/ | f4- f3/2 f/ d3/2 B/ | c6 F2 | B4 z2 B2 | d6 z2 | e4 f2 g2 | %36
w: ar- * mes, ci- toy-|ens! for-|mez _ vos ba- tail-|lons: Mar-|chons, mar-|chons!|qu'un sang im-|
 c6 (g>f) | f4- f3/2 d/ e3/2 c/ | B4 !fermata!z4 |] %39
w: pur A- *|breu- * ve nos sil-|lons!|
V:2
 z8 | z8 | z8 | z8 | z8 | z8 | z8 | z8 | z8 | z8 | z8 | z8 | z8 | z8 | z8 | z8 | z8 | z8 | z8 | %19
w: |||||||||||||||||||
 z8 | z8 | z8 | z8 | z8 | z8 | z8 | z8 | z8 | z4 z2 z z/!ff! f/ || f4- f3/2 f/ d3/2 B/ | %30
w: |||||||||Aux|ar- * mes, ci- toy-|
 c6 z z/ f/ | f4- f3/2 f/ d3/2 B/ | c6 z2 | z2 d2 d4 | z2 B2 B4 | B4 B2 B2 | B6 B2 | %37
w: ens! for-|mez _ vos ba- tail-|lons:|Mar- chons,|mar- chons!|qu'un sang im-|pur A-|
 d4- d3/2 B/ c3/2 e/ | d4 !fermata!z4 |] %39
w: breu- * ve nos sil-|lons!|
V:3
 z8 | z8 | z8 | z8 | z8 | z8 | z8 | z8 | z8 | z8 | z8 | z8 | z8 | z8 | z8 | z8 | z8 | z8 | z8 | %19
w: |||||||||||||||||||
 z8 | z8 | z8 | z8 | z8 | z8 | z8 | z8 | z8 | z4 z2 z z/!ff! F,/ || F,4- F,3/2 F,/ D3/2 B,/ | %30
w: |||||||||Aux|ar- * mes, ci- toy-|
 C6 z z/ F,/ | F,4- F,3/2 F,/ D3/2 B,/ | C6 z2 | z2 B,2 B,4 | z2 _A,2 A,4 | G,4 F,2 E,2 | %36
w: ens! for-|mez _ vos ba- tail-|lons:|Mar- chons,|mar- chons!|qu'un sang im-|
 =E,6 E,2 | F,4- F,3/2 F,/ F,3/2 F,/ | B,,4 !fermata!z4 |] %39
w: pur A-|breu- * ve nos sil-|lons!|
V:4
 !fermata![DFBd]4 z4 |!f! [DFB]2 [DFB]2 [FAc]2 [FAc]2 | [FBd]2 [FB]2 [FB]2 [FB]2 | %3
 [CEGB]2 [CEGB]2 [CEFA]2 [CEFA]2 | [DFB]>B d>f b2!p! [DB]>[Fc] | [FBd]2 [FBd]2 [FBd]2 [Fce]>[Bd] | %6
 [FBd]2 [FAc]2 z2 [FAc]>[=Bd] | [Fce]2 [Fce]2 [Fce]2 [Fdf]>[ce] | [FBd]4 z4 | %9
!f! [FBdf]2 z2 [FBdf]2 z2 | z2 [FAcf]2 [FAcf]2 z2 | z4 !>![A,C_G]4 | [B,DF]4 !>![B,F_A]4 | %13
 [B,EG]4 !>![C=EB]4 | [CFA]F=EF _G2 F2 | _d4 z ded | c4 z c_dc | B4 z _dcB | [_D=EGB]2 [CFA]2 z4 | %19
 z8 | z!ff! [Acf]/[Acf]/ [Acf][Acf] [Acf]2 z2 | z8 | z [Acf]/[Acf]/ [Acf][Acf] [Acf]2 z2 | %23
 z2 [DFB]2 [DFB]2 z2 | z2 [DFB]2 [DFB]2 z2 | [Be]4 [Bf]2 [Bg]2 | [GBc]6 z2 | %27
 [FBd]2 z2 [FBd]2 [FAce]2 | [FBd]2 [Bdfb]2 B2 z2 || z8 | z [Acf]/[Acf]/ [Acf][Acf] [Acf]2 z2 | z8 | %32
 z [Acf]/[Acf]/ [Acf][Acf] [Acf]2 z2 | z2 [DFB]2 [DFB]2 z2 | z2 [DFB]2 [DFB]2 z2 | %35
 [Be]4 [Bf]2 [Bg]2 | [GBc]6 z2 | [FBd]2 z2 [FBd]2 [FAce]2 | [FBd]4 !fermata!z4 |] %39
V:5
 !fermata![B,,D,F,B,]4 z4 | [B,,B,]2 [B,,B,]2 [F,,F,]2 [F,,F,]2 | %2
 [D,,D,]2 [D,,D,]2 [D,,D,]2 [D,,D,]2 | E,2 E,2 F,2 F,2 | B,>B,, D,>F, B,2 z2 | B,,2 D,2 F,2 B,2 | %6
 F,2 C2 A,2 F,2 | F,,2 A,,2 C,2 F,,2 | B,,2 B,2 F,2 D,2 | [B,,D,F,B,]2 z2 [B,,D,F,B,]2 z2 | %10
 z2 [F,,A,,C,F,]2 [F,,A,,C,F,]2 z2 | !>!E,8 | D,4 !>!D,4 | E,4 !>!_G,4 | F,2 z2 z4 | B,4 z B,CB, | %16
 A,4 z _A,B,A, | G,4 _G,4 | F,4 z4 | z8 | z F,,A,,C, F,2 z2 | z8 | z F,,A,,C, F,2 z2 | %23
 z2 [B,,B,]2 [B,,B,]2 z2 | z2 [_A,,_A,]2 [A,,A,]2 z2 | [G,,G,]4 [F,,F,]2 [E,,E,]2 | [=E,,=E,]6 z2 | %27
 [F,,F,]2 z2 F,2 F,,2 | B,,2 B,,2 B,,2 z2 || z8 | z F,,A,,C, F,2 z2 | z8 | z F,,A,,C, F,2 z2 | %33
 z2 [B,,B,]2 [B,,B,]2 z2 | z2 [_A,,_A,]2 [A,,A,]2 z2 | [G,,G,]4 [F,,F,]2 [E,,E,]2 | [=E,,=E,]6 z2 | %37
 [F,,F,]2 z2 F,2 F,,2 | B,,4 !fermata!z4 |] %39
V:6
 x8 | x8 | x8 | x8 | x8 | x8 | x8 | x8 | x8 | x8 | x8 | x8 | x8 | x8 | x8 | z F=EF _G4 | %16
 z _GF=E F4 | z FGF =E4 | x8 | x8 | x8 | x8 | x8 | x8 | x8 | x8 | x8 | x8 | x8 || x8 | x8 | x8 | %32
 x8 | x8 | x8 | x8 | x8 | x8 | x8 |] %39

